src/code.svg

<svg viewBox="0 0 16 16" fill="none" xmlns="http://www.w3.org/2000/svg"><path d="M10.89 11.56 14 8l-3.11-3.56-.63.72L12.75 8l-2.49 2.84.63.72Zm-5.78 0 .63-.72L3.25 8l2.49-2.84-.63-.72L2 8l3.11 3.56Zm4.56-8.28L8.79 3l-2.5 9.72.89.28 2.49-9.72Z" fill="#111111"/></svg>

<svg viewBox="0 0 16 16" fill="none" xmlns="http://www.w3.org/2000/svg"><path d="M10.89 11.56L14 8L10.89 4.44L10.26 5.16L12.75 8L10.26 10.84L10.89 11.56ZM5.11 11.56L5.74 10.84L3.25 8L5.74 5.16L5.11 4.44L2 8L5.11 11.56ZM9.67 3.28L8.79 3L6.29 12.72L7.18 13L9.67 3.28Z" fill="#111111"/></svg>
